( pcb2gcode 2.0.0 )
( Software-independent Gcode )

G94 ( Millimeters per minute feed rate. )
G21 ( Units == Millimeters. )

G90 ( Absolute coordinates. )
G00 S0 ( RPM spindle speed. )
G64 P0.01016 ( set maximum deviation from commanded toolpath )
G01 F500.00000 ( Feedrate. )


G00 Z5.00000 (Retract to tool change height)
T0
M5      (Spindle stop.)
G04 P1.00000 (Wait for spindle to stop)
(MSG, Change tool bit to mill diameter 0.30000mm)
M6      (Tool change.)
M0      (Temporary machine stop.)
M3 ( Spindle on clockwise. )
G04 P1.00000 (Wait for spindle to get up to speed)
G04 P0 ( dwell for no time -- G64 should not smooth over this point )
G00 Z4.00000 ( retract )

G00 X0.18046 Y6.20548 ( rapid move to begin. )
G01 F250.00000
G01 Z0.10000
G04 P0 ( dwell for no time -- G64 should not smooth over this point )
G01 F500.00000
G01 X0.18046 Y6.20548
G01 X0.18046 Y7.60553
G01 X1.58048 Y7.60553
G01 X1.58048 Y7.10551
G01 X1.60575 Y7.02217
G01 X1.64713 Y6.98077
G01 X1.70120 Y6.95836
G01 X2.07687 Y6.95836
G01 X2.15368 Y6.99946
G01 X3.26155 Y8.09463
G01 X2.15368 Y6.99946
G04 P0 ( dwell for no time -- G64 should not smooth over this point )
G00 Z4.00000 ( retract )

G00 X3.68741 Y6.40246 ( rapid move to begin. )
G01 F250.00000
G01 Z0.10000
G04 P0 ( dwell for no time -- G64 should not smooth over this point )
G01 F500.00000
G01 X3.68741 Y6.40246
G01 X3.82284 Y6.39408
G01 X3.89046 Y6.33830
G01 X3.95805 Y6.39408
G01 X4.09046 Y6.40548
G01 X4.09046 Y7.40553
G01 X3.69046 Y7.40553
G01 X3.68741 Y6.40246
G04 P0 ( dwell for no time -- G64 should not smooth over this point )
G00 Z4.00000 ( retract )

G00 X7.69047 Y6.40548 ( rapid move to begin. )
G01 F250.00000
G01 Z0.10000
G04 P0 ( dwell for no time -- G64 should not smooth over this point )
G01 F500.00000
G01 X7.69047 Y6.40548
G01 X7.82283 Y6.39408
G01 X7.89045 Y6.33830
G01 X7.95806 Y6.39408
G01 X8.09047 Y6.40548
G01 X8.09047 Y7.40553
G01 X7.69047 Y7.40553
G01 X7.69047 Y6.40548
G04 P0 ( dwell for no time -- G64 should not smooth over this point )
G00 Z4.00000 ( retract )

G00 X9.59047 Y6.40548 ( rapid move to begin. )
G01 F250.00000
G01 Z0.10000
G04 P0 ( dwell for no time -- G64 should not smooth over this point )
G01 F500.00000
G01 X9.59047 Y6.40548
G01 X9.99047 Y6.40548
G01 X9.99334 Y6.80975
G01 X10.01574 Y6.86382
G01 X10.05765 Y6.90548
G01 X10.01574 Y6.94719
G01 X9.99334 Y7.00124
G01 X9.99047 Y7.40553
G01 X9.59047 Y7.40553
G01 X9.59047 Y6.40548
G04 P0 ( dwell for no time -- G64 should not smooth over this point )
G00 Z4.00000 ( retract )

G00 X11.00007 Y8.10383 ( rapid move to begin. )
G01 F250.00000
G01 Z0.10000
G04 P0 ( dwell for no time -- G64 should not smooth over this point )
G01 F500.00000
G01 X11.00007 Y8.10383
G01 X3.28784 Y8.10553
G01 X3.26155 Y8.09463
G01 X11.00007 Y8.10383
G01 X12.11724 Y6.99946
G01 X12.16590 Y6.96692
G01 X12.22331 Y6.95549
G01 X12.56974 Y6.95836
G01 X12.62381 Y6.98077
G01 X12.66519 Y7.02217
G01 X12.69046 Y7.10551
G01 X12.69046 Y7.60553
G01 X14.09046 Y7.60553
G01 X14.09046 Y6.20548
G01 X12.69046 Y6.20548
G01 X12.69046 Y6.70548
G01 X12.67906 Y6.76289
G01 X12.64652 Y6.81155
G01 X12.56974 Y6.85262
G01 X12.11310 Y6.86454
G01 X11.01368 Y7.96156
G01 X10.93687 Y8.00263
G01 X5.96119 Y8.00263
G01 X5.88441 Y7.96156
G01 X5.84334 Y7.88478
G01 X5.84046 Y7.55549
G01 X5.85189 Y7.49809
G01 X5.88441 Y7.44945
G01 X5.93307 Y7.41691
G01 X5.99048 Y7.40553
G01 X5.99048 Y6.40548
G01 X5.59048 Y6.40548
G01 X5.59048 Y7.40553
G01 X5.64786 Y7.41691
G01 X5.69652 Y7.44945
G01 X5.72904 Y7.49809
G01 X5.74047 Y7.55549
G01 X5.73760 Y7.88478
G01 X5.71519 Y7.93883
G01 X5.67379 Y7.98023
G01 X5.59045 Y8.00550
G01 X3.33404 Y8.00263
G01 X3.25723 Y7.96156
G01 X2.15782 Y6.86454
G01 X1.70120 Y6.85262
G01 X1.62440 Y6.81155
G01 X1.59188 Y6.76289
G01 X1.58048 Y6.70548
G01 X1.58048 Y6.20548
G01 X0.18046 Y6.20548
G01 X0.45046 Y6.47548
G01 X1.31048 Y6.47548
G01 X1.31464 Y6.76126
G01 X1.36196 Y6.90548
G01 X1.31464 Y7.04975
G01 X1.31048 Y7.33550
G01 X0.45046 Y7.33550
G01 X0.45046 Y6.47548
G01 X0.72046 Y6.74549
G01 X1.04243 Y6.74549
G01 X1.07085 Y6.90553
G01 X1.04243 Y7.06550
G01 X0.72046 Y7.06550
G01 X0.72046 Y6.74549
G04 P0 ( dwell for no time -- G64 should not smooth over this point )
G00 Z4.00000 ( retract )

G00 X0.18129 Y4.36548 ( rapid move to begin. )
G01 F250.00000
G01 Z0.10000
G04 P0 ( dwell for no time -- G64 should not smooth over this point )
G01 F500.00000
G01 X0.18129 Y4.36548
G01 X0.19656 Y4.22012
G01 X0.24175 Y4.08113
G01 X0.31482 Y3.95456
G01 X0.41264 Y3.84592
G01 X0.53087 Y3.76000
G01 X0.66440 Y3.70053
G01 X0.80738 Y3.67018
G01 X0.95356 Y3.67018
G01 X1.09653 Y3.70053
G01 X1.23006 Y3.76000
G01 X1.34830 Y3.84592
G01 X1.44611 Y3.95456
G01 X1.51919 Y4.08110
G01 X1.58416 Y4.32601
G01 X1.68574 Y4.43957
G01 X1.63296 Y4.45293
G01 X1.58429 Y4.48943
G01 X1.51919 Y4.64988
G01 X1.44611 Y4.77645
G01 X1.34830 Y4.88509
G01 X1.23006 Y4.97102
G01 X1.09653 Y5.03045
G01 X0.95356 Y5.06083
G01 X0.80738 Y5.06083
G01 X0.66440 Y5.03045
G01 X0.53087 Y4.97102
G01 X0.41264 Y4.88509
G01 X0.31482 Y4.77645
G01 X0.24175 Y4.64988
G01 X0.19658 Y4.51090
G01 X0.18129 Y4.36548
G01 X0.45277 Y4.36551
G01 X0.46212 Y4.45441
G01 X0.53446 Y4.61692
G01 X0.66661 Y4.73589
G01 X0.83575 Y4.79083
G01 X1.01264 Y4.77224
G01 X1.16664 Y4.68334
G01 X1.27118 Y4.53947
G01 X1.32313 Y4.39893
G01 X1.27118 Y4.19154
G01 X1.22648 Y4.11410
G01 X1.09430 Y3.99510
G01 X0.92518 Y3.94018
G01 X0.74830 Y3.95875
G01 X0.59430 Y4.04768
G01 X0.48975 Y4.19154
G01 X0.45277 Y4.36551
G01 X0.72427 Y4.36548
G01 X0.73778 Y4.30196
G01 X0.77596 Y4.24943
G01 X0.83219 Y4.21697
G01 X0.92874 Y4.21697
G01 X0.98498 Y4.24943
G01 X1.02315 Y4.30196
G01 X1.03986 Y4.37765
G01 X1.02315 Y4.42906
G01 X0.95856 Y4.50076
G01 X0.86415 Y4.52083
G01 X0.80238 Y4.50076
G01 X0.75409 Y4.45730
G01 X0.72427 Y4.36548
G04 P0 ( dwell for no time -- G64 should not smooth over this point )
G00 Z4.00000 ( retract )

G00 X3.69046 Y1.58050 ( rapid move to begin. )
G01 F250.00000
G01 Z0.10000
G04 P0 ( dwell for no time -- G64 should not smooth over this point )
G01 F500.00000
G01 X3.69046 Y1.58050
G01 X4.09046 Y1.58050
G01 X4.09350 Y2.58357
G01 X3.95805 Y2.59190
G01 X3.89046 Y2.64768
G01 X3.82284 Y2.59190
G01 X3.69046 Y2.58050
G01 X3.69046 Y1.58050
G04 P0 ( dwell for no time -- G64 should not smooth over this point )
G00 Z4.00000 ( retract )

G00 X1.40448 Y1.22645 ( rapid move to begin. )
G01 F250.00000
G01 Z0.10000
G04 P0 ( dwell for no time -- G64 should not smooth over this point )
G01 F500.00000
G01 X1.40448 Y1.22645
G01 X2.45642 Y0.19142
G01 X1.40448 Y1.22645
G01 X1.34863 Y1.24885
G01 X1.28848 Y1.24750
G01 X1.09653 Y1.16053
G01 X0.95356 Y1.13016
G01 X0.80738 Y1.13016
G01 X0.66440 Y1.16053
G01 X0.53087 Y1.22000
G01 X0.41264 Y1.30590
G01 X0.31482 Y1.41453
G01 X0.24175 Y1.54110
G01 X0.19656 Y1.68012
G01 X0.18129 Y1.82548
G04 P0 ( dwell for no time -- G64 should not smooth over this point )
G00 Z4.00000 ( retract )

G00 X0.72427 Y1.82551 ( rapid move to begin. )
G01 F250.00000
G01 Z0.10000
G04 P0 ( dwell for no time -- G64 should not smooth over this point )
G01 F500.00000
G01 X0.72427 Y1.82551
G01 X0.73778 Y1.76196
G01 X0.77596 Y1.70943
G01 X0.83219 Y1.67694
G01 X0.89679 Y1.67016
G01 X0.99265 Y1.70653
G01 X1.03326 Y1.79302
G01 X1.03326 Y1.85797
G01 X0.98498 Y1.94158
G01 X0.92874 Y1.97405
G01 X0.86415 Y1.98083
G01 X0.80238 Y1.96076
G01 X0.75409 Y1.91730
G01 X0.72427 Y1.82551
G01 X0.45277 Y1.82548
G01 X0.46212 Y1.73658
G01 X0.53446 Y1.57410
G01 X0.66664 Y1.45510
G01 X0.83578 Y1.40016
G01 X1.01264 Y1.41875
G01 X1.19991 Y1.50260
G01 X1.27118 Y1.65154
G01 X1.30817 Y1.82548
G01 X1.29882 Y1.91441
G01 X1.22648 Y2.07689
G01 X1.09430 Y2.19589
G01 X0.92518 Y2.25083
G01 X0.83575 Y2.25083
G01 X0.66661 Y2.19589
G01 X0.53446 Y2.07689
G01 X0.46212 Y1.91441
G01 X0.45277 Y1.82548
G01 X0.18129 Y1.82548
G01 X0.19656 Y1.97087
G01 X0.24175 Y2.10986
G01 X0.31482 Y2.23645
G01 X0.41264 Y2.34509
G01 X0.53087 Y2.43099
G01 X0.66440 Y2.49045
G01 X0.80738 Y2.52083
G01 X0.95356 Y2.52083
G01 X1.09653 Y2.49045
G01 X1.23006 Y2.43099
G01 X1.34830 Y2.34509
G01 X1.44611 Y2.23645
G01 X1.51919 Y2.10986
G01 X1.56437 Y1.97085
G01 X1.57964 Y1.82548
G01 X1.56437 Y1.68012
G01 X1.51919 Y1.54110
G01 X1.45449 Y1.40834
G01 X1.45660 Y1.35258
G01 X1.47890 Y1.30148
G01 X2.45223 Y0.32444
G01 X2.50090 Y0.29193
G01 X2.55830 Y0.28050
G01 X5.61974 Y0.28337
G01 X5.69652 Y0.32444
G01 X5.73760 Y0.40123
G01 X5.74047 Y1.43049
G01 X5.72904 Y1.48789
G01 X5.69652 Y1.53656
G01 X5.64786 Y1.56907
G01 X5.59048 Y1.58050
G01 X5.59048 Y2.58050
G01 X5.99048 Y2.58050
G01 X5.99048 Y1.58050
G01 X5.93307 Y1.56907
G01 X5.88441 Y1.53656
G01 X5.85189 Y1.48789
G01 X5.84046 Y1.43049
G01 X5.84046 Y0.43051
G01 X5.86574 Y0.34718
G01 X5.93307 Y0.29193
G01 X5.99048 Y0.28050
G01 X11.71261 Y0.28050
G01 X11.77002 Y0.29193
G01 X11.81869 Y0.32444
G01 X12.79204 Y1.30148
G01 X12.81434 Y1.35261
G01 X12.81642 Y1.40834
G01 X12.69651 Y1.70049
G01 X12.65478 Y1.74684
G01 X12.56661 Y1.77549
G01 X11.02659 Y1.77996
G01 X10.66032 Y2.13993
G01 X10.60012 Y2.25012
G01 X10.09095 Y2.75522
G01 X10.00761 Y2.78050
G01 X9.54046 Y2.78050
G01 X9.54046 Y3.28049
G01 X10.14046 Y3.28049
G01 X10.14046 Y2.91334
G01 X10.16575 Y2.83000
G01 X10.72062 Y2.27105
G01 X10.78079 Y2.16086
G01 X11.07088 Y1.88692
G01 X11.12829 Y1.87549
G01 X12.59778 Y1.87877
G01 X12.65478 Y1.90414
G01 X12.69651 Y1.95050
G01 X12.75173 Y2.10986
G01 X12.82483 Y2.23645
G01 X12.92262 Y2.34509
G01 X13.04088 Y2.43099
G01 X13.17441 Y2.49045
G01 X13.31739 Y2.52083
G01 X13.46354 Y2.52083
G01 X13.60651 Y2.49045
G01 X13.74007 Y2.43099
G01 X13.85831 Y2.34509
G01 X13.95612 Y2.23645
G01 X14.02920 Y2.10986
G01 X14.07436 Y1.97085
G01 X14.08965 Y1.82548
G01 X14.07436 Y1.68012
G01 X14.02920 Y1.54110
G01 X13.95612 Y1.41453
G01 X13.85831 Y1.30590
G01 X13.74004 Y1.22000
G01 X13.60651 Y1.16053
G01 X13.46356 Y1.13016
G01 X13.31739 Y1.13016
G01 X13.17441 Y1.16053
G01 X12.98246 Y1.24753
G01 X12.92229 Y1.24888
G01 X12.86644 Y1.22647
G01 X11.79214 Y0.18215
G01 X2.45642 Y0.19142
G01 X2.48284 Y0.18050
G01 X11.80507 Y0.18218
G01 X12.86644 Y1.22647
G04 P0 ( dwell for no time -- G64 should not smooth over this point )
G00 Z4.00000 ( retract )

G00 X13.22714 Y1.82548 ( rapid move to begin. )
G01 F250.00000
G01 Z0.10000
G04 P0 ( dwell for no time -- G64 should not smooth over this point )
G01 F500.00000
G01 X13.22714 Y1.82548
G01 X13.27830 Y1.70653
G01 X13.34220 Y1.67694
G01 X13.40679 Y1.67016
G01 X13.46857 Y1.69023
G01 X13.51683 Y1.73369
G01 X13.54324 Y1.79302
G01 X13.54324 Y1.85797
G01 X13.51683 Y1.91730
G01 X13.46857 Y1.96076
G01 X13.37413 Y1.98083
G01 X13.28594 Y1.94158
G01 X13.24777 Y1.88903
G01 X13.22714 Y1.82548
G01 X12.93441 Y1.82551
G01 X13.07101 Y1.50260
G01 X13.25831 Y1.41875
G01 X13.34576 Y1.40016
G01 X13.52262 Y1.41875
G01 X13.67664 Y1.50765
G01 X13.78117 Y1.65154
G01 X13.81815 Y1.82548
G01 X13.78117 Y1.99945
G01 X13.67664 Y2.14334
G01 X13.60431 Y2.19589
G01 X13.43517 Y2.25083
G01 X13.25831 Y2.23224
G01 X13.10428 Y2.14334
G01 X12.99976 Y1.99945
G01 X12.93441 Y1.82551
G04 P0 ( dwell for no time -- G64 should not smooth over this point )
G00 Z4.00000 ( retract )

G00 X12.69130 Y4.36548 ( rapid move to begin. )
G01 F250.00000
G01 Z0.10000
G04 P0 ( dwell for no time -- G64 should not smooth over this point )
G01 F500.00000
G01 X12.69130 Y4.36548
G01 X12.70657 Y4.22012
G01 X12.75173 Y4.08110
G01 X12.82483 Y3.95456
G01 X12.92262 Y3.84592
G01 X13.04088 Y3.76000
G01 X13.17441 Y3.70053
G01 X13.31739 Y3.67018
G01 X13.46354 Y3.67018
G01 X13.60651 Y3.70053
G01 X13.74004 Y3.76000
G01 X13.85831 Y3.84592
G01 X13.95612 Y3.95456
G01 X14.02920 Y4.08110
G01 X14.07436 Y4.22012
G01 X14.08965 Y4.36548
G01 X14.07436 Y4.51087
G01 X14.02920 Y4.64986
G01 X13.95612 Y4.77645
G01 X13.85831 Y4.88509
G01 X13.74004 Y4.97102
G01 X13.60651 Y5.03045
G01 X13.46354 Y5.06083
G01 X13.31739 Y5.06083
G01 X13.17441 Y5.03045
G01 X13.04088 Y4.97102
G01 X12.94970 Y4.90851
G01 X12.85511 Y4.89916
G01 X12.84934 Y4.82045
G01 X12.75153 Y4.64922
G01 X12.70657 Y4.51087
G01 X12.69130 Y4.36548
G01 X12.96278 Y4.36548
G01 X12.99918 Y4.53767
G01 X13.07713 Y4.67135
G01 X13.25831 Y4.77224
G01 X13.34576 Y4.79083
G01 X13.52262 Y4.77224
G01 X13.67664 Y4.68334
G01 X13.78119 Y4.53947
G01 X13.80880 Y4.45441
G01 X13.80880 Y4.27658
G01 X13.73646 Y4.11410
G01 X13.60431 Y3.99510
G01 X13.43517 Y3.94018
G01 X13.25831 Y3.95875
G01 X13.10428 Y4.04768
G01 X12.99976 Y4.19154
G01 X12.96278 Y4.36548
G01 X13.23428 Y4.36548
G01 X13.24777 Y4.30196
G01 X13.28594 Y4.24943
G01 X13.34220 Y4.21697
G01 X13.43872 Y4.21697
G01 X13.49498 Y4.24943
G01 X13.53316 Y4.30196
G01 X13.54667 Y4.36551
G01 X13.53316 Y4.42906
G01 X13.46857 Y4.50076
G01 X13.37413 Y4.52083
G01 X13.27604 Y4.47564
G01 X13.23428 Y4.36548
G04 P0 ( dwell for no time -- G64 should not smooth over this point )
G00 Z4.00000 ( retract )

G00 X12.90898 Y6.90553 ( rapid move to begin. )
G01 F250.00000
G01 Z0.10000
G04 P0 ( dwell for no time -- G64 should not smooth over this point )
G01 F500.00000
G01 X12.90898 Y6.90553
G01 X12.95627 Y6.76126
G01 X12.96047 Y6.47548
G01 X13.82046 Y6.47548
G01 X13.82046 Y7.33550
G01 X12.96047 Y7.33550
G01 X12.95627 Y7.04975
G01 X12.90898 Y6.90553
G01 X13.20009 Y6.90548
G01 X13.22851 Y6.74549
G01 X13.55046 Y6.74549
G01 X13.55046 Y7.06550
G01 X13.22851 Y7.06550
G01 X13.20009 Y6.90548
G04 P0 ( dwell for no time -- G64 should not smooth over this point )
G00 Z4.00000 ( retract )

G00 X9.53741 Y1.38355 ( rapid move to begin. )
G01 F250.00000
G01 Z0.10000
G04 P0 ( dwell for no time -- G64 should not smooth over this point )
G01 F500.00000
G01 X9.53741 Y1.38355
G01 X9.54046 Y0.88050
G01 X10.14046 Y0.88050
G01 X10.14046 Y1.38050
G01 X9.53741 Y1.38355
G04 P0 ( dwell for no time -- G64 should not smooth over this point )
G00 Z4.00000 ( retract )

G00 X7.53741 Y2.33356 ( rapid move to begin. )
G01 F250.00000
G01 Z0.10000
G04 P0 ( dwell for no time -- G64 should not smooth over this point )
G01 F500.00000
G01 X7.53741 Y2.33356
G01 X7.54046 Y1.83048
G01 X8.14046 Y1.83048
G01 X8.14046 Y2.33048
G01 X7.53741 Y2.33356

G04 P0 ( dwell for no time -- G64 should not smooth over this point )
G00 Z5.000 ( retract )

M5 ( Spindle off. )
G04 P1.000000
M9 ( Coolant off. )
M2 ( Program end. )

